src/Assets/icons/flexibility.svg

<svg width="82" height="81" viewBox="0 0 82 81" fill="none" xmlns="http://www.w3.org/2000/svg">
<circle cx="41" cy="40.5" r="40.5" fill="#2E2BA6"/>
<circle cx="41" cy="40.5" r="40.5" fill="url(#paint0_linear_605_94)" fill-opacity="0.2"/>
<g filter="url(#filter0_d_605_94)">
<path d="M55.0742 53.71L62.4383 46.326L55.0742 38.9419L52.2479 41.7681L54.8353 44.3356H37.7385V48.3163H54.8353L52.2479 50.8838L55.0742 53.71Z" fill="white"/>
<path d="M31.1904 38.9419L28.603 36.3744H45.6998V32.3938H28.603L31.1904 29.8262L28.3642 27L21 34.3841L28.3642 41.7681L31.1904 38.9419Z" fill="white"/>
</g>
<defs>
<filter id="filter0_d_605_94" x="19" y="26" width="45.4384" height="30.71" filterUnits="userSpaceOnUse" color-interpolation-filters="sRGB">
<feFlood flood-opacity="0" result="BackgroundImageFix"/>
<feColorMatrix in="SourceAlpha" type="matrix" values="0 0 0 0 0 0 0 0 0 0 0 0 0 0 0 0 0 0 127 0" result="hardAlpha"/>
<feOffset dy="1"/>
<feGaussianBlur stdDeviation="1"/>
<feComposite in2="hardAlpha" operator="out"/>
<feColorMatrix type="matrix" values="0 0 0 0 0 0 0 0 0 0 0 0 0 0 0 0 0 0 0.25 0"/>
<feBlend mode="normal" in2="BackgroundImageFix" result="effect1_dropShadow_605_94"/>
<feBlend mode="normal" in="SourceGraphic" in2="effect1_dropShadow_605_94" result="shape"/>
</filter>
<linearGradient id="paint0_linear_605_94" x1="41" y1="21.5" x2="41" y2="101.5" gradientUnits="userSpaceOnUse">
<stop stop-opacity="0"/>
<stop offset="1"/>
</linearGradient>
</defs>
</svg>

<svg xmlns="http://www.w3.org/2000/svg" width="82" height="81" fill="none" xmlns:v="https://vecta.io/nano"><circle cx="41" cy="40.5" r="40.5" fill="#2e2ba6"/><circle cx="41" cy="40.5" r="40.5" fill="url(#B)" fill-opacity=".2"/><g filter="url(#A)"><path d="M55.074 53.71l7.364-7.384-7.364-7.384-2.826 2.826 2.587 2.568H37.739v3.981h17.097l-2.587 2.568 2.826 2.826z" fill="#fff"/><path d="M31.19 38.942l-2.587-2.567H45.7v-3.981H28.603l2.587-2.568L28.364 27 21 34.384l7.364 7.384 2.826-2.826z" fill="#fff"/></g><defs><filter id="A" x="19" y="26" width="45.438" height="30.71" filterUnits="userSpaceOnUse" color-interpolation-filters="sRGB"><feFlood flood-opacity="0" result="A"/><feColorMatrix in="SourceAlpha" values="0 0 0 0 0 0 0 0 0 0 0 0 0 0 0 0 0 0 127 0" result="B"/><feOffset dy="1"/><feGaussianBlur stdDeviation="1"/><feComposite in2="B" operator="out"/><feColorMatrix values="0 0 0 0 0 0 0 0 0 0 0 0 0 0 0 0 0 0 0.25 0"/><feBlend in2="A"/><feBlend in="SourceGraphic"/></filter><linearGradient id="B" x1="41" y1="21.5" x2="41" y2="101.5" gradientUnits="userSpaceOnUse"><stop stop-opacity="0"/><stop offset="1"/></linearGradient></defs></svg>
